X: 10443
M: C|
L: 1/8
K: Bb
(uB>A) |\
(ba)gf (gf)ed | (ed)cB (BA)GF | G{A}BA{B}c B{c}dc{d}e | [d2F2][B2D2][B2D2] :|
|: ([fF]>[eE]) |\
[dD][fF][bB][fF] [dD][fF][bB][fF] | [g2G2][e2E2G,2] [e2E2G,2]([gG]>[fF]) |\
[=e=E][gG][c'c][gG] [eE][gG][c'c][gG] | [a2A2][f2F2A,2] [f2F2A,2](G>A) |


